X: 407
T: A Trip To Galloway
R: waltz
M: 3/4
K: Dmajor
Bc|:d3 c B2|A F3 d2|D3 E D2|A F3 D2|
d3 c B2|A F3 D2|E3 F A2|B4 Bc|
d3 c B2|A d3 F2|D3 E D2|A F3 D2|
G3 B G2|F3 A F2|E3 F A2|B4 A2|
d4 a2|a f3 d2|c4 e2|e c3 A2|
d4 a2|a f3 d2|A3 F A2|B4 A2|
d3 f a2|a f3 d2|c3 e a2|e c3 A2|
d3 c B2|A F3 d2|E3 F A2|1 B4 Bc:|2 B4||

